material/.icons/material/alpha-a.svg

<svg xmlns="http://www.w3.org/2000/svg" viewBox="0 0 24 24"><path d="M11 7a2 2 0 00-2 2v8h2v-4h2v4h2V9a2 2 0 00-2-2h-2m0 2h2v2h-2V9z"/></svg>

<?xml version="1.0" encoding="UTF-8"?><!DOCTYPE svg PUBLIC "-//W3C//DTD SVG 1.1//EN" "http://www.w3.org/Graphics/SVG/1.1/DTD/svg11.dtd"><svg xmlns="http://www.w3.org/2000/svg" xmlns:xlink="http://www.w3.org/1999/xlink" version="1.1" id="mdi-alpha-a" width="24" height="24" viewBox="0 0 24 24"><path d="M11,7A2,2 0 0,0 9,9V17H11V13H13V17H15V9A2,2 0 0,0 13,7H11M11,9H13V11H11V9Z" /></svg>
